X:1
T:Title
%%score ( 1 2 ) { 3 | 4 }
L:1/8
Q:1/4=95
M:4/4
K:G
V:1 treble nm="Grand Piano, Soprano"
V:2 treble 
V:3 bass nm="Choir Pad, Bass"
V:4 bass 
V:1
 [B,D]2 [_B,^C]>[=B,D] [CG]>[CF] [CG]>[C_B] | [B,B]2 [Ec]2 [DB]4 | %2
w: By~Edmund~Simon~Lorenz * * * * * *||
 [Fd]2 [Fc]>[FB] [FA]>[=F^G] [^FA]>[Ec] | [DB]2 [DG]2 [CE]4 | %4
w: ||
 [B,D]2 [_B,^C]>[=B,D] [B,G]>[CF] [DG]>[D_B] | [DB]2 [=Fd]2 E4 | [Ec]2 [EB]>[EA] [DA][DG][DF]G | %7
w: |||
 [GB]2 [DA]2 [DG]4 | G2 G>G F2 G>F | E2 E2 B,4 | [GB]2 [GB]>[GB] [FA]2 [GB]>[FA] | %11
w: ||||
 [EG]2 [EG]2 [^DF]4 | [EG]2 [EG]2 [FA]4 | [GB]2 [GB]2 c2 ^c2 | [Gd]2 [Gd]>[Fd] [Ad]2 [Fe]>[Fd] | %15
w: ||||
 [Gd]8 |] %16
w: |
V:2
 x8 | x8 | x8 | x8 | x8 | x8 | x8 | x8 | x8 | x8 | x8 | x8 | x8 | z4 G4 | x8 | x8 |] %16
V:3
 G,2 G,>G, E,>E, ^D,>D, | D,2 G,2 G,4 | A,2 A,>D C>B, C>F, | G,2 G,2 G,4 | G,2 G,>G, G,>D, G,>F, | %5
 G,2 G,2 G,4 | A,2 ^G,>A, B,B,A,B, | D2 C2 B,4 | G,2 G,>G, F,2 G,>F, | E,2 E,2 B,,4 | %10
 B,2 B,>B, A,2 B,>A, | G,2 G,2 F,2 B,2 | B,2 B,2[K:treble] D4 | D2 D2 C2 _B,2 | B,2 B,>A, C2 C>C | %15
 B,8 |] %16
V:4
 G,,2 G,,>G,, G,,>G,, G,,>G,, | G,,2 G,,2 G,,4 | D,2 D,>D, D,>D, D,>D, | z2 B,,2 C,4 | %4
 G,,2 G,,>G,, G,,>A,, B,,>D, | z2 B,,2 C,4 | A,,2 B,,>C, D,D,D,D, | D,2 D,2 G,,4 | z8 | z8 | %10
 G,2 G,>G, F,2 G,>F, | E,2 E,2 B,,4 | E,2 E,2 D,4 | G,2 F,2 E,2 ^D,2 | D,2 D,>D, D,2 D,>D, | %15
 [G,,G,]8 |] %16

